apps/scalable/etherape.svg

<svg xmlns="http://www.w3.org/2000/svg" style="isolation:isolate" width="256" height="256"><defs><filter id="a" width="270.648" height="254.338" x="-7.32" y="2.95" filterUnits="userSpaceOnUse"><feGaussianBlur xmlns="http://www.w3.org/2000/svg" in="SourceGraphic" stdDeviation="4.294"/><feOffset xmlns="http://www.w3.org/2000/svg" dy="4" result="pf_100_offsetBlur"/><feFlood xmlns="http://www.w3.org/2000/svg" flood-opacity=".4"/><feComposite xmlns="http://www.w3.org/2000/svg" in2="pf_100_offsetBlur" operator="in" result="pf_100_dropShadow"/><feBlend xmlns="http://www.w3.org/2000/svg" in="SourceGraphic" in2="pf_100_dropShadow"/></filter></defs><path fill="#2B898F" d="M165.685 11.947c74.055 0 84.639 10.557 84.639 84.544v59.251c0 73.986-10.584 84.543-84.639 84.543h-75.37c-74.055 0-84.639-10.557-84.639-84.543V96.491c0-73.987 10.584-84.544 84.639-84.544h75.37z" filter="url(#a)"/><path fill="#CCC" d="M179.8 12.087c62.039 1.451 71.325 15.101 71.325 84.404v59.251c0 69.301-9.286 82.952-71.322 84.403-.002.543.007-227.701-.003-228.058z"/><defs><filter id="b" width="55.877" height="134.105" x="187.14" y="57.12" filterUnits="userSpaceOnUse"><feGaussianBlur xmlns="http://www.w3.org/2000/svg"/></filter></defs><path fill="#ECEFF1" d="M215.082 57.117c-15.43 0-27.939 12.508-27.939 27.938s12.509 27.939 27.939 27.939 27.938-12.509 27.938-27.939-12.508-27.938-27.938-27.938zm-22.351 78.228a5.575 5.575 0 0 0-5.588 5.587v11.176a5.576 5.576 0 0 0 5.588 5.588h11.175a5.576 5.576 0 0 0 5.588-5.588v-11.176a5.575 5.575 0 0 0-5.588-5.587h-11.175zm33.526 0a5.576 5.576 0 0 0-5.588 5.587v11.176a5.577 5.577 0 0 0 5.588 5.588h11.176a5.576 5.576 0 0 0 5.587-5.588v-11.176a5.575 5.575 0 0 0-5.587-5.587h-11.176zm-33.526 33.526a5.575 5.575 0 0 0-5.588 5.588v11.175a5.575 5.575 0 0 0 5.588 5.588h11.175a5.575 5.575 0 0 0 5.588-5.588v-11.175a5.575 5.575 0 0 0-5.588-5.588h-11.175zm33.526 0a5.576 5.576 0 0 0-5.588 5.588v11.175a5.576 5.576 0 0 0 5.588 5.588h11.176a5.575 5.575 0 0 0 5.587-5.588v-11.175a5.575 5.575 0 0 0-5.587-5.588h-11.176z" filter="url(#b)"/><path fill="#FFF" d="M16.313 129.875c-4.188.125-9.813.091-10.625 0l.125-11.625c6.641.053 14.375.875 17.75-2.312 1.396-.814 3.525-3.442 4.375-6.625.25-8.5 2.125-12.75 4.5-15.875 1.784-2.17 3.141-3.921 5.25-5.375 10.623-7.328 25.06-5.61 32.75 5.625q3.312 5.187 3.687 9.562c.375 4.375.423 17.83.375 43.063-.23 12.722 8.967 23.627 22.625 24.187 11.25-.25 23.278-7.514 23.625-23.75l-.062-45.125c.546-17.742 10.651-30.151 26.625-34.375 4.114-1.088 7.767-.843 12.75-.937l18.5-.063.062 11.688h-18.937c-4.626-.163-8.136.118-10.563.812-10.687 3.5-16.625 12.25-16.812 22.813v46.125c-.688 20-15.938 34.062-34.875 34.312-19 .125-34.563-15.062-34.563-35.375l.063-36.5c-.188-10.812-4.5-14.687-11.967-14.847-8.783.347-11.211 7.404-11.471 14.785-1.62 12.872-13.735 20.703-23.187 19.812z"/><g opacity=".4"><linearGradient id="c" x1=".517" x2=".517" y2="1"><stop offset="0%" stop-color="#fff"/><stop offset="12.5%" stop-opacity=".098" stop-color="#fff"/><stop offset="92.5%" stop-opacity=".098"/><stop offset="100%" stop-opacity=".498"/></linearGradient><path fill="none" stroke="url(#c)" stroke-linecap="round" stroke-linejoin="round" stroke-width="4.077" d="M165.685 11.947c74.055 0 84.639 10.557 84.639 84.544v59.251c0 73.986-10.584 84.543-84.639 84.543h-75.37c-74.055 0-84.639-10.557-84.639-84.543V96.491c0-73.987 10.584-84.544 84.639-84.544h75.37z" vector-effect="non-scaling-stroke"/></g></svg>

<svg xmlns="http://www.w3.org/2000/svg" style="isolation:isolate" width="256" height="256" viewBox="0 0 256 256">
 <defs>
  <filter id="jNm4VDDWtfx13weAdzw7RZyEn8G8dyz6" width="270.648" height="254.338" x="-7.32" y="2.95" filterUnits="userSpaceOnUse">
   <feGaussianBlur xmlns="http://www.w3.org/2000/svg" in="SourceGraphic" stdDeviation="4.294"/>
   <feOffset xmlns="http://www.w3.org/2000/svg" dx="0" dy="4" result="pf_100_offsetBlur"/>
   <feFlood xmlns="http://www.w3.org/2000/svg" flood-opacity=".4"/>
   <feComposite xmlns="http://www.w3.org/2000/svg" in2="pf_100_offsetBlur" operator="in" result="pf_100_dropShadow"/>
   <feBlend xmlns="http://www.w3.org/2000/svg" in="SourceGraphic" in2="pf_100_dropShadow" mode="normal"/>
  </filter>
 </defs>
 <g filter="url(#jNm4VDDWtfx13weAdzw7RZyEn8G8dyz6)">
  <path fill="#2B898F" d="M 165.685 11.947 C 239.74 11.947 250.324 22.504 250.324 96.491 L 250.324 155.742 C 250.324 229.728 239.74 240.285 165.685 240.285 L 90.315 240.285 C 16.26 240.285 5.676 229.728 5.676 155.742 L 5.676 96.491 C 5.676 22.504 16.26 11.947 90.315 11.947 L 165.685 11.947 Z"/>
 </g>
 <path fill="#CCCCCC" d="M 179.8 12.087 C 241.839 13.538 251.125 27.188 251.125 96.491 L 251.125 155.742 C 251.125 225.043 241.839 238.694 179.803 240.145 C 179.801 240.688 179.81 12.444 179.8 12.087 Z"/>
 <g>
  <defs>
   <filter id="kjRlb2es1nWUD5GG96gm8TB7XLEarp0G" width="55.877" height="134.105" x="187.14" y="57.12" filterUnits="userSpaceOnUse">
    <feGaussianBlur xmlns="http://www.w3.org/2000/svg" stdDeviation="0"/>
   </filter>
  </defs>
  <g filter="url(#kjRlb2es1nWUD5GG96gm8TB7XLEarp0G)">
   <path fill="#ECEFF1" d="M 215.082 57.117 C 199.652 57.117 187.143 69.625 187.143 85.055 C 187.143 100.485 199.652 112.994 215.082 112.994 C 230.512 112.994 243.02 100.485 243.02 85.055 C 243.02 69.625 230.512 57.117 215.082 57.117 Z M 192.731 135.345 C 189.635 135.345 187.143 137.837 187.143 140.932 L 187.143 152.108 C 187.143 155.203 189.635 157.696 192.731 157.696 L 203.906 157.696 C 207.002 157.696 209.494 155.203 209.494 152.108 L 209.494 140.932 C 209.494 137.837 207.002 135.345 203.906 135.345 L 192.731 135.345 Z M 226.257 135.345 C 223.162 135.345 220.669 137.837 220.669 140.932 L 220.669 152.108 C 220.669 155.203 223.162 157.696 226.257 157.696 L 237.433 157.696 C 240.528 157.696 243.02 155.203 243.02 152.108 L 243.02 140.932 C 243.02 137.837 240.528 135.345 237.433 135.345 L 226.257 135.345 Z M 192.731 168.871 C 189.635 168.871 187.143 171.363 187.143 174.459 L 187.143 185.634 C 187.143 188.73 189.635 191.222 192.731 191.222 L 203.906 191.222 C 207.002 191.222 209.494 188.73 209.494 185.634 L 209.494 174.459 C 209.494 171.363 207.002 168.871 203.906 168.871 L 192.731 168.871 Z M 226.257 168.871 C 223.162 168.871 220.669 171.363 220.669 174.459 L 220.669 185.634 C 220.669 188.73 223.162 191.222 226.257 191.222 L 237.433 191.222 C 240.528 191.222 243.02 188.73 243.02 185.634 L 243.02 174.459 C 243.02 171.363 240.528 168.871 237.433 168.871 L 226.257 168.871 Z"/>
  </g>
  <path fill="#FFFFFF" d="M 16.313 129.875 C 12.125 130 6.5 129.966 5.688 129.875 L 5.813 118.25 C 12.454 118.303 20.188 119.125 23.563 115.938 C 24.959 115.124 27.088 112.496 27.938 109.313 C 28.188 100.813 30.063 96.563 32.438 93.438 C 34.222 91.268 35.579 89.517 37.688 88.063 C 48.311 80.735 62.748 82.453 70.438 93.688 Q 73.75 98.875 74.125 103.25 C 74.5 107.625 74.548 121.08 74.5 146.313 C 74.27 159.035 83.467 169.94 97.125 170.5 C 108.375 170.25 120.403 162.986 120.75 146.75 L 120.688 101.625 C 121.234 83.883 131.339 71.474 147.313 67.25 C 151.427 66.162 155.08 66.407 160.063 66.313 L 178.563 66.25 L 178.625 77.938 L 159.688 77.938 C 155.062 77.775 151.552 78.056 149.125 78.75 C 138.438 82.25 132.5 91 132.313 101.563 L 132.313 147.688 C 131.625 167.688 116.375 181.75 97.438 182 C 78.438 182.125 62.875 166.938 62.875 146.625 L 62.938 110.125 C 62.75 99.313 58.438 95.438 50.971 95.278 C 42.188 95.625 39.76 102.682 39.5 110.063 C 37.88 122.935 25.765 130.766 16.313 129.875 Z"/>
 </g>
 <g opacity=".4">
  <linearGradient id="_lgradient_41" x1=".517" x2=".517" y1="0" y2="1">
   <stop offset="0%" style="stop-color:rgb(255,255,255)"/>
   <stop offset="12.5%" stop-opacity=".098" style="stop-color:rgb(255,255,255)"/>
   <stop offset="92.5%" stop-opacity=".098" style="stop-color:rgb(0,0,0)"/>
   <stop offset="100%" stop-opacity=".498" style="stop-color:rgb(0,0,0)"/>
  </linearGradient>
  <path fill="none" stroke="url(#_lgradient_41)" stroke-linecap="round" stroke-linejoin="round" stroke-width="4.077" d="M 165.685 11.947 C 239.74 11.947 250.324 22.504 250.324 96.491 L 250.324 155.742 C 250.324 229.728 239.74 240.285 165.685 240.285 L 90.315 240.285 C 16.26 240.285 5.676 229.728 5.676 155.742 L 5.676 96.491 C 5.676 22.504 16.26 11.947 90.315 11.947 L 165.685 11.947 Z" vector-effect="non-scaling-stroke"/>
 </g>
</svg>
